src/img/icons/watch.svg

<svg width="40" height="40" viewBox="0 0 40 40" fill="none" xmlns="http://www.w3.org/2000/svg">
<path d="M20.0002 8.05624C12.0489 8.05624 5.58008 14.5304 5.58008 22.4883C5.58008 30.4462 12.0489 36.9202 20.0002 36.9202C27.9514 36.9202 34.4202 30.4461 34.4202 22.4883C34.4202 14.5305 27.9514 8.05624 20.0002 8.05624ZM20.0002 35.9827C12.5659 35.9827 6.51758 29.9291 6.51758 22.4883C6.51758 15.0474 12.5659 8.99374 20.0002 8.99374C27.4345 8.99374 33.4827 15.0473 33.4827 22.4883C33.4827 29.9292 27.4345 35.9827 20.0002 35.9827Z" fill="#5FBE3F"/>
<path d="M31.352 10.3258L32.9094 8.23141C33.1985 7.83834 33.3197 7.3465 33.2462 6.86409C33.1728 6.38168 32.9107 5.94822 32.5176 5.65906C32.323 5.51589 32.102 5.41245 31.8674 5.35465C31.6328 5.29685 31.3891 5.28583 31.1503 5.32221C30.6679 5.39569 30.2344 5.65779 29.9452 6.05086L28.4304 8.13727C26.2651 6.85652 23.8359 6.0875 21.328 5.88891V4.29688H23.0972C23.2248 4.29711 23.3475 4.24818 23.44 4.16027C23.5324 4.07235 23.5875 3.9522 23.5937 3.82477V2.84461C23.5937 1.75 22.6759 0.859375 21.5819 0.859375H18.4178C17.324 0.859375 16.4062 1.75 16.4062 2.84461V3.82477C16.4124 3.9522 16.4674 4.07235 16.5599 4.16027C16.6523 4.24818 16.7751 4.29711 16.9027 4.29688H18.3593V5.9168C15.999 6.1486 13.7163 6.88625 11.6667 8.07953L10.1335 6.01703C9.98924 5.82121 9.80758 5.65593 9.59904 5.53074C9.3905 5.40556 9.15921 5.32296 8.91855 5.28771C8.67789 5.25246 8.43262 5.26527 8.19694 5.32539C7.96126 5.38551 7.73983 5.49175 7.54546 5.63797C7.35109 5.78419 7.18763 5.9675 7.06454 6.17728C6.94144 6.38706 6.86115 6.61916 6.82831 6.86016C6.79546 7.10117 6.81072 7.34629 6.87319 7.58136C6.93566 7.81643 7.04411 8.03679 7.19227 8.22969L8.72813 10.2511C7.03536 11.8083 5.68432 13.7 4.76051 15.8065C3.83671 17.9129 3.36026 20.1882 3.36133 22.4883C3.36133 31.6704 10.8254 39.1406 19.9999 39.1406C29.1745 39.1406 36.6385 31.6704 36.6385 22.4883C36.6396 20.2066 36.1708 17.9492 35.2613 15.8567C34.3518 13.7642 33.021 11.8815 31.352 10.3258ZM30.7042 6.60156C30.7745 6.50615 30.8629 6.42551 30.9643 6.36426C31.0658 6.303 31.1783 6.26232 31.2954 6.24455C31.4126 6.22678 31.5321 6.23225 31.6472 6.26067C31.7622 6.28908 31.8705 6.33988 31.9659 6.41016C32.0614 6.48043 32.142 6.56882 32.2032 6.67026C32.2645 6.7717 32.3052 6.88421 32.323 7.00137C32.3407 7.11854 32.3353 7.23805 32.3068 7.3531C32.2784 7.46814 32.2276 7.57646 32.1573 7.67188L30.6475 9.70219C30.1929 9.32235 29.7186 8.9669 29.2263 8.63734L30.7042 6.60156ZM17.3437 3.35938V2.84461C17.3501 2.56415 17.4662 2.29739 17.667 2.10152C17.8679 1.90566 18.1374 1.79629 18.418 1.79688H21.582C21.8625 1.79633 22.1321 1.90572 22.3329 2.10158C22.5337 2.29744 22.6497 2.56418 22.6562 2.84461V3.35938H17.3437ZM20.3905 4.29688V5.84078C20.2607 5.83781 20.1305 5.83586 19.9999 5.83586C19.7642 5.83586 19.5301 5.84203 19.2968 5.85148V4.29688H20.3905ZM7.93875 7.6625C7.86741 7.56779 7.81541 7.45996 7.78574 7.34516C7.75607 7.23037 7.7493 7.11085 7.76582 6.99343C7.79918 6.7563 7.92538 6.54213 8.11664 6.39805C8.30791 6.25396 8.54858 6.19175 8.78571 6.22512C9.02284 6.25848 9.23701 6.38467 9.3811 6.57594L10.8674 8.57594C10.3717 8.90262 9.89373 9.2554 9.43547 9.63281L7.93875 7.6625ZM19.9999 38.2031C11.3423 38.2031 4.29883 31.1534 4.29883 22.4883C4.29883 13.8231 11.3423 6.77344 19.9999 6.77344C28.6575 6.77344 35.701 13.823 35.701 22.4883C35.701 31.1535 28.6575 38.2031 19.9999 38.2031Z" fill="#5FBE3F"/>
<path d="M20 13.5747C18.1586 13.5728 16.3625 14.1452 14.8618 15.2122C14.8113 15.2478 14.7683 15.2931 14.7354 15.3454C14.7025 15.3978 14.6802 15.4561 14.67 15.5171C14.6597 15.5781 14.6616 15.6405 14.6756 15.7007C14.6895 15.7609 14.7153 15.8178 14.7514 15.868C14.7874 15.9183 14.8331 15.9609 14.8857 15.9933C14.9383 16.0258 14.9968 16.0476 15.0579 16.0574C15.1189 16.0671 15.1813 16.0647 15.2414 16.0502C15.3016 16.0357 15.3582 16.0095 15.4081 15.973C17.0326 14.825 19.0271 14.3246 21.0012 14.5698C22.9752 14.815 24.7867 15.7881 26.081 17.2986C27.3753 18.8092 28.0592 20.7485 27.9988 22.7368C27.9385 24.7251 27.1382 26.6193 25.7547 28.0486C24.3712 29.4778 22.504 30.3393 20.5187 30.4643C18.5334 30.5893 16.573 29.9689 15.0211 28.7244C13.4692 27.48 12.4377 25.7011 12.1284 23.7361C11.8191 21.7711 12.2543 19.7614 13.3489 18.1004C13.4093 18.0102 13.4367 17.9019 13.4264 17.7938C13.416 17.6857 13.3686 17.5846 13.2922 17.5075L13.2916 17.5069C13.2428 17.4579 13.1837 17.4203 13.1186 17.3969C13.0535 17.3734 12.9841 17.3647 12.9152 17.3713C12.8463 17.378 12.7798 17.3998 12.7204 17.4353C12.661 17.4708 12.6102 17.519 12.5717 17.5765C11.6059 19.0323 11.0917 20.7411 11.0938 22.4883C11.0938 27.4031 15.0891 31.4017 20 31.4017C24.9109 31.4017 28.9063 27.4031 28.9063 22.4883C28.9063 17.5734 24.9109 13.5747 20 13.5747Z" fill="#5FBE3F"/>
<path d="M19.9219 12.793C20.0462 12.793 20.1654 12.7437 20.2533 12.6558C20.3412 12.5678 20.3906 12.4486 20.3906 12.3243V10.1406C20.3906 10.0163 20.3412 9.89708 20.2533 9.80917C20.1654 9.72126 20.0462 9.67188 19.9219 9.67188C19.7976 9.67188 19.6783 9.72126 19.5904 9.80917C19.5025 9.89708 19.4531 10.0163 19.4531 10.1406V12.3243C19.4531 12.4486 19.5025 12.5678 19.5904 12.6558C19.6783 12.7437 19.7976 12.793 19.9219 12.793Z" fill="#5FBE3F"/>
<path d="M20.0781 32.1835C19.9538 32.1835 19.8346 32.2329 19.7467 32.3208C19.6588 32.4087 19.6094 32.528 19.6094 32.6523V34.836C19.6094 34.9603 19.6588 35.0795 19.7467 35.1674C19.8346 35.2553 19.9538 35.3047 20.0781 35.3047C20.2024 35.3047 20.3217 35.2553 20.4096 35.1674C20.4975 35.0795 20.5469 34.9603 20.5469 34.836V32.6523C20.5469 32.528 20.4975 32.4087 20.4096 32.3208C20.3217 32.2329 20.2024 32.1835 20.0781 32.1835Z" fill="#5FBE3F"/>
<path d="M21.6977 22.9224C21.6981 22.6395 21.6275 22.361 21.4922 22.1125L20.4625 16.0285C20.4447 15.9181 20.3889 15.8173 20.3048 15.7436C20.2206 15.67 20.1134 15.628 20.0016 15.625H20C19.8885 15.6278 19.7815 15.6694 19.6972 15.7425C19.613 15.8156 19.5568 15.9157 19.5384 16.0257L18.4498 22.2313C18.3469 22.4623 18.2968 22.7134 18.3033 22.9662C18.3098 23.219 18.3727 23.4672 18.4875 23.6926C18.6022 23.918 18.7659 24.1149 18.9665 24.2689C19.1671 24.4229 19.3996 24.5302 19.6469 24.5828C19.8943 24.6355 20.1503 24.6322 20.3963 24.5731C20.6422 24.5141 20.8718 24.4009 21.0684 24.2418C21.265 24.0826 21.4235 23.8816 21.5324 23.6533C21.6412 23.425 21.6977 23.1753 21.6977 22.9224ZM19.9916 18.8744L20.3978 21.2722C20.125 21.2061 19.8401 21.2087 19.5686 21.28L19.9916 18.8744ZM19.2398 22.9224C19.2398 22.772 19.2844 22.625 19.3679 22.5C19.4515 22.375 19.5702 22.2776 19.7091 22.22C19.848 22.1625 20.0009 22.1475 20.1484 22.1768C20.2958 22.2062 20.4313 22.2786 20.5376 22.3849C20.6439 22.4912 20.7163 22.6267 20.7456 22.7741C20.775 22.9216 20.7599 23.0745 20.7023 23.2134C20.6448 23.3523 20.5474 23.471 20.4223 23.5546C20.2973 23.6381 20.1504 23.6827 20 23.6827C19.7984 23.6824 19.6052 23.6023 19.4627 23.4597C19.3201 23.3172 19.24 23.1239 19.2398 22.9224Z" fill="#5FBE3F"/>
<path d="M30.1641 22.8906H32.3477C32.472 22.8906 32.5912 22.8412 32.6791 22.7533C32.767 22.6654 32.8164 22.5462 32.8164 22.4219C32.8164 22.2976 32.767 22.1783 32.6791 22.0904C32.5912 22.0025 32.472 21.9531 32.3477 21.9531H30.1641C30.0397 21.9531 29.9205 22.0025 29.8326 22.0904C29.7447 22.1783 29.6953 22.2976 29.6953 22.4219C29.6953 22.5462 29.7447 22.6654 29.8326 22.7533C29.9205 22.8412 30.0397 22.8906 30.1641 22.8906Z" fill="#5FBE3F"/>
<path d="M9.83585 22.1094H7.65234C7.52802 22.1094 7.40879 22.1588 7.32089 22.2467C7.23298 22.3346 7.18359 22.4538 7.18359 22.5781C7.18359 22.7024 7.23298 22.8217 7.32089 22.9096C7.40879 22.9975 7.52802 23.0469 7.65234 23.0469H9.83585C9.96017 23.0469 10.0794 22.9975 10.1673 22.9096C10.2552 22.8217 10.3046 22.7024 10.3046 22.5781C10.3046 22.4538 10.2552 22.3346 10.1673 22.2467C10.0794 22.1588 9.96017 22.1094 9.83585 22.1094Z" fill="#5FBE3F"/>
<path d="M27.1445 15.7274C27.2061 15.7275 27.267 15.7154 27.3239 15.6919C27.3808 15.6683 27.4324 15.6338 27.4759 15.5902L29.0201 14.046C29.106 13.9577 29.1537 13.8391 29.1529 13.7159C29.1521 13.5927 29.1028 13.4748 29.0156 13.3876C28.9285 13.3005 28.8106 13.2512 28.6874 13.2503C28.5642 13.2495 28.4456 13.2972 28.3572 13.3831L26.8131 14.9272C26.7475 14.9928 26.7029 15.0763 26.6848 15.1672C26.6667 15.2581 26.676 15.3524 26.7115 15.438C26.7469 15.5237 26.807 15.5969 26.8841 15.6484C26.9612 15.6999 27.0518 15.7274 27.1445 15.7274Z" fill="#5FBE3F"/>
<path d="M12.5238 29.3864L10.9797 30.9305C10.9352 30.9738 10.8998 31.0255 10.8754 31.0826C10.8511 31.1397 10.8383 31.2011 10.8379 31.2632C10.8375 31.3253 10.8494 31.3869 10.873 31.4443C10.8965 31.5018 10.9313 31.5539 10.9752 31.5979C11.0191 31.6418 11.0713 31.6765 11.1287 31.7001C11.1861 31.7237 11.2477 31.7356 11.3098 31.7352C11.3719 31.7347 11.4333 31.722 11.4904 31.6976C11.5475 31.6733 11.5992 31.6379 11.6425 31.5934L13.1866 30.0493C13.2726 29.961 13.3203 29.8424 13.3194 29.7192C13.3186 29.596 13.2693 29.478 13.1822 29.3909C13.0951 29.3038 12.9771 29.2545 12.8539 29.2536C12.7307 29.2528 12.6121 29.3005 12.5238 29.3864Z" fill="#5FBE3F"/>
<path d="M27.5607 29.3012C27.5173 29.2571 27.4656 29.222 27.4085 29.198C27.3515 29.1739 27.2903 29.1614 27.2284 29.1612C27.1665 29.161 27.1052 29.173 27.048 29.1965C26.9908 29.2201 26.9388 29.2548 26.8951 29.2985C26.8513 29.3423 26.8167 29.3943 26.7931 29.4515C26.7696 29.5087 26.7576 29.57 26.7578 29.6319C26.7581 29.6938 26.7706 29.755 26.7946 29.812C26.8187 29.869 26.8537 29.9207 26.8979 29.9641L28.442 31.5082C28.4854 31.5523 28.5371 31.5874 28.5941 31.6114C28.6512 31.6354 28.7124 31.6479 28.7743 31.6482C28.8361 31.6484 28.8975 31.6364 28.9547 31.6128C29.0119 31.5892 29.0639 31.5546 29.1076 31.5108C29.1514 31.4671 29.186 31.4151 29.2096 31.3579C29.2331 31.3006 29.2451 31.2393 29.2449 31.1774C29.2446 31.1156 29.2321 31.0544 29.2081 30.9973C29.184 30.9403 29.1489 30.8886 29.1048 30.8452L27.5607 29.3012Z" fill="#5FBE3F"/>
<path d="M12.4386 15.6752C12.4819 15.7197 12.5337 15.7552 12.5908 15.7795C12.6479 15.8038 12.7093 15.8166 12.7714 15.817C12.8335 15.8174 12.895 15.8055 12.9525 15.7819C13.0099 15.7584 13.0621 15.7236 13.106 15.6797C13.1499 15.6358 13.1847 15.5836 13.2082 15.5262C13.2318 15.4687 13.2437 15.4071 13.2433 15.3451C13.2428 15.283 13.2301 15.2216 13.2057 15.1645C13.1814 15.1073 13.1459 15.0556 13.1014 15.0123L11.5574 13.4683C11.4691 13.3823 11.3505 13.3346 11.2273 13.3355C11.104 13.3363 10.9861 13.3856 10.899 13.4728C10.8119 13.5599 10.7626 13.6778 10.7617 13.801C10.7609 13.9243 10.8086 14.0428 10.8946 14.1311L12.4386 15.6752Z" fill="#5FBE3F"/>
<path d="M16.4224 28.5459C16.5293 28.6093 16.6571 28.6278 16.7775 28.597C16.898 28.5663 17.0013 28.489 17.0648 28.3822C17.1283 28.2753 17.1467 28.1475 17.116 28.0271C17.0853 27.9066 17.008 27.8032 16.9011 27.7398C15.5194 26.9225 14.5155 25.5936 14.107 24.0411C13.6986 22.4886 13.9185 20.8377 14.7192 19.4463C14.7504 19.393 14.7708 19.334 14.7792 19.2728C14.7876 19.2115 14.7838 19.1492 14.768 19.0894C14.7522 19.0297 14.7247 18.9736 14.6871 18.9245C14.6496 18.8754 14.6027 18.8342 14.5492 18.8033C14.4956 18.7724 14.4365 18.7524 14.3752 18.7444C14.3139 18.7365 14.2516 18.7407 14.192 18.7569C14.1323 18.7731 14.0764 18.8009 14.0276 18.8388C13.9787 18.8767 13.9378 18.9238 13.9073 18.9776C12.9833 20.5826 12.7292 22.487 13.2 24.2781C13.6708 26.0692 14.8286 27.6026 16.4224 28.5457V28.5459Z" fill="#5FBE3F"/>
<path d="M15.2187 18.4604C15.2827 18.4605 15.3461 18.4474 15.4049 18.4219C15.4637 18.3965 15.5166 18.3592 15.5604 18.3125C15.6879 18.1768 15.8234 18.0451 15.963 17.9212C16.0096 17.8805 16.0477 17.8309 16.075 17.7755C16.1023 17.72 16.1184 17.6596 16.1224 17.5979C16.1263 17.5362 16.1179 17.4743 16.0978 17.4158C16.0777 17.3573 16.0462 17.3034 16.0051 17.2571C15.9641 17.2108 15.9143 17.1732 15.8586 17.1462C15.8029 17.1193 15.7424 17.1037 15.6807 17.1002C15.6189 17.0968 15.5571 17.1056 15.4988 17.1261C15.4404 17.1467 15.3867 17.1786 15.3408 17.22C15.1799 17.3626 15.0239 17.5144 14.877 17.6708C14.8144 17.7374 14.7727 17.821 14.757 17.911C14.7413 18.0011 14.7522 18.0938 14.7885 18.1778C14.8249 18.2617 14.8849 18.3332 14.9613 18.3834C15.0378 18.4336 15.1272 18.4604 15.2187 18.4604Z" fill="#5FBE3F"/>
</svg>

<svg xmlns="http://www.w3.org/2000/svg" fill="none" viewBox="0 0 40 40"><path fill="#5FBE3F" d="M20 8.056c-7.951 0-14.42 6.474-14.42 14.432S12.05 36.92 20 36.92s14.42-6.474 14.42-14.432c0-7.957-6.469-14.432-14.42-14.432zm0 27.927c-7.434 0-13.482-6.054-13.482-13.495 0-7.44 6.048-13.494 13.482-13.494 7.434 0 13.483 6.053 13.483 13.494S27.435 35.983 20 35.983z"/><path fill="#5FBE3F" d="M31.352 10.326l1.557-2.095a1.84 1.84 0 0 0-2.964-2.18L28.43 8.137a16.51 16.51 0 0 0-7.102-2.248V4.297h1.77a.496.496 0 0 0 .496-.472v-.98c0-1.095-.918-1.986-2.012-1.986h-3.164c-1.094 0-2.012.891-2.012 1.986v.98a.496.496 0 0 0 .497.472h1.456v1.62c-2.36.232-4.643.97-6.692 2.163l-1.534-2.063a1.84 1.84 0 1 0-2.94 2.213l1.535 2.021a16.616 16.616 0 0 0-5.367 12.237c0 9.182 7.464 16.653 16.639 16.653 9.174 0 16.639-7.47 16.639-16.653a16.616 16.616 0 0 0-5.287-12.162zm-.648-3.724a.903.903 0 0 1 1.453 1.07l-1.51 2.03a16.74 16.74 0 0 0-1.42-1.065l1.477-2.035zm-13.36-3.243v-.514a1.072 1.072 0 0 1 1.074-1.048h3.164a1.072 1.072 0 0 1 1.074 1.048v.514h-5.312zm3.046.938V5.84a17.07 17.07 0 0 0-1.093.01V4.297h1.093zM7.94 7.662A.903.903 0 0 1 9.38 6.576l1.486 2c-.495.327-.973.68-1.432 1.057L7.94 7.663zm12.06 30.541c-8.657 0-15.7-7.05-15.7-15.715s7.043-15.715 15.7-15.715c8.659 0 15.702 7.05 15.702 15.715 0 8.666-7.044 15.715-15.701 15.715z"/><path fill="#5FBE3F" d="M20 13.575a8.851 8.851 0 0 0-5.138 1.637.468.468 0 1 0 .546.761 7.986 7.986 0 1 1-2.06 2.127.47.47 0 0 0-.056-.593.467.467 0 0 0-.72.07 8.866 8.866 0 0 0-1.478 4.911c0 4.915 3.995 8.914 8.906 8.914 4.91 0 8.906-3.999 8.906-8.914 0-4.915-3.995-8.913-8.906-8.913zM19.922 12.793a.469.469 0 0 0 .469-.469v-2.183a.469.469 0 0 0-.938 0v2.183a.47.47 0 0 0 .469.469zM20.078 32.184a.469.469 0 0 0-.469.468v2.184a.469.469 0 0 0 .938 0v-2.184a.469.469 0 0 0-.469-.468z"/><path fill="#5FBE3F" d="M21.698 22.922c0-.282-.07-.561-.206-.81l-1.03-6.083a.48.48 0 0 0-.46-.404H20a.48.48 0 0 0-.462.4l-1.088 6.206a1.699 1.699 0 0 0 2.618 2.01 1.698 1.698 0 0 0 .63-1.319zm-1.706-4.048l.406 2.398a1.694 1.694 0 0 0-.83.008l.424-2.406zm-.752 4.048a.76.76 0 1 1 1.52 0 .76.76 0 0 1-1.52 0zM30.164 22.89h2.184a.469.469 0 0 0 0-.937h-2.184a.469.469 0 1 0 0 .938zM9.836 22.11H7.652a.469.469 0 0 0 0 .937h2.184a.469.469 0 0 0 0-.938zM27.145 15.727a.468.468 0 0 0 .33-.137l1.545-1.544a.47.47 0 0 0-.663-.663l-1.544 1.544a.469.469 0 0 0 .332.8zM12.524 29.386L10.98 30.93a.47.47 0 1 0 .662.663l1.545-1.544a.468.468 0 0 0-.663-.663zM27.56 29.301a.468.468 0 1 0-.662.663l1.544 1.544a.469.469 0 1 0 .663-.663l-1.544-1.544zM12.439 15.675a.468.468 0 1 0 .662-.663l-1.544-1.544a.468.468 0 0 0-.662.663l1.544 1.544zM16.422 28.546a.469.469 0 0 0 .48-.806 6.101 6.101 0 0 1-2.183-8.294.47.47 0 0 0-.527-.69.468.468 0 0 0-.285.222 7.038 7.038 0 0 0 2.515 9.568zM15.219 18.46a.466.466 0 0 0 .341-.148c.128-.135.263-.267.403-.39a.469.469 0 1 0-.622-.702c-.161.143-.317.294-.464.45a.468.468 0 0 0 .342.79z"/></svg>
